src/svg/icons/star.svg

<svg viewBox="0 0 20 20"><path d="M20 7.6c-.1-.2-.2-.3-.4-.3l-4.1-.4-2.5-.2-.9-2.3-1.6-4c-.1-.3-.3-.4-.5-.4s-.4.1-.5.3l-1.6 4L7 6.7l-2.4.2-4.1.3c-.2.1-.4.2-.5.4s0 .4.2.5L3.3 11l1.8 1.7-.6 2.5-.9 4.2c0 .2 0 .4.2.5.2.1.4.1.6 0L8 17.7l2-1.3 2.1 1.3 3.5 2.2c.2.1.4.1.6 0 .2-.1.2-.3.2-.5l-.9-4.2-.6-2.5 1.9-1.7 3.1-2.9c.1-.1.1-.3.1-.5z"/></svg>

<?xml version="1.0" encoding="utf-8"?>
<!-- Generator: Adobe Illustrator 19.2.1, SVG Export Plug-In . SVG Version: 6.00 Build 0)  -->
<svg version="1.1" id="Calque_1" xmlns="http://www.w3.org/2000/svg" xmlns:xlink="http://www.w3.org/1999/xlink" x="0px" y="0px"
	 viewBox="0 0 20 20" style="enable-background:new 0 0 20 20;" xml:space="preserve">
<style type="text/css">
	.st0{fill:#3A434C;}
</style>
<path class="st0" d="M20,7.6c-0.1-0.2-0.2-0.3-0.4-0.3l-4.1-0.4L13,6.7l-0.9-2.3l-1.6-4C10.4,0.1,10.2,0,10,0S9.6,0.1,9.5,0.3
	l-1.6,4L7,6.7L4.6,6.9L0.5,7.2C0.3,7.3,0.1,7.4,0,7.6S0,8,0.2,8.1L3.3,11l1.8,1.7l-0.6,2.5l-0.9,4.2c0,0.2,0,0.4,0.2,0.5
	C4,20,4.2,20,4.4,19.9L8,17.7l2-1.3l2.1,1.3l3.5,2.2c0.2,0.1,0.4,0.1,0.6,0c0.2-0.1,0.2-0.3,0.2-0.5l-0.9-4.2l-0.6-2.5l1.9-1.7
	l3.1-2.9C20,8,20,7.8,20,7.6z"/>
</svg>
